X:1
T:Son caduti al fine
T:Son caduti al fine
T:Domenico Obizzi
T:Arietta
T:Source : Madrigali et arie a voce sola---Libro I ---Venetia---A.Vincenti---1627. Editor : André Vierendeels (27/02/16).
T:Notes : Original clefs : C1, F4 Editorial accidentals above the staff Dotted brackets indicate black notes Note values have been halved in 3-beat measures Notation in original print : "Alfabeto d'ariette per la Chitarra alla Spagnola", realised by the editor   
T:©
T:©
T:©
C:Domenico Obizzi
Z:©
%%score 1 { ( 2 3 ) | 4 }
L:1/8
Q:1/4=95
M:4/4
K:F
V:1 treble nm="Soprano" snm="S"
V:2 treble nm="BC" snm="BC"
V:3 treble 
V:4 bass 
V:1
 z2 cG AAGF | GGFE DE F2 | GA BG AFGA | Bc dB cd _ec | dBdc B2 G2 | AG G/A/B/A/ G4 |[M:2/4] F4 :: %7
w: Son ca- du- ti'al fi- ne'i|fio- ri dal giar- din _ del|va- * go _ vi- so da le|la- * bra'on _ d'e- * sce'il- *|ri so son fug- gi- t'i|gra- * ti'o- * * * do-|.ri.|
w: Ec- co d'or piu non bion-|deg- gi- a'il di- a- * de-|ma _ del _ tem- po'es- * po-|sto'à _ l'on _ te _ sol _|d'ar- * * * gen- to|ca- * nu- * * * teg-|gia,|
w: Tem- po fu che nel mio|pet- to so- vra'il tro- * no|del _ mio _ co- re qual ti-|ran- * na'em _ pia _ d'A- *|mo- re do- mi- na- sti'o-|gni _ mio'af- * * * fet-|to,|
w: Con- tro'A- mo- re'il tem- po'ho-|ma- i, fi- do scher- * no|m'hà _ re- * ca- to ma tu|con- * tro'il _ tem- * po'a- *|la- to qual ri- pa- ro|tro- * ve- * * * ra-|i,|
 G3 G |[M:4/4] c2 Bc A4 | G2 B/c/d/B/ _e2 de | c4 B4 |[M:3/2] z4 d4 c4 | d4 c6 B2 | A4 c8- | %14
w: Don- na|di che ti van-|ti, di _ _ _ _ che ti|van- ti,|sei pur|sen- za bel-|lez- za|
w: vai na-|scon- di- ti'ogn' ho-|ra, na- * * * scon- di- ti'ogn'|ho- ra,|don- na|sen- za bel-|ta non|
w: hor son|fuo- ri d'im- pac-|cio, son _ _ _ fuo- ri d'im-|pac- cio,|sei tu|sen- za bel-|lez- za|
w: que- sto|del tem- po'e gio-|co, del _ _ _ _ tem- po'e|gio- co,|ch'in te|man- chi bel-|lez- za,|
 c4 B4 A4 | A4 G8 | F4 A4 G4 | A4 G6 F2 | E4 F2 E2 F2 C2 | D2 C2 D2 E2 F4 | G4 G8 | F12 :| %22
w: _ e sen-|z'A- man-|ti, sei pur|sen- za bel-|lez- za _ _ _|e _ _ _ sen-|z'A- man-|ti.|
w: _ _ in-|a- mo-|ra, don- na|sen- za bel-|ta non _ _ _|_ _ _ _ in-|a- mo-|ra.|
w: _ io sen-|za lac-|cio, sei tu|sen- za bel|lez- za _ _ _|io _ _ _ sen-|za lac-|cio.|
w: _ in al-|tri fo-|co, ch'in te|man- chi bel-|lez- za _ _ _|in _ _ _ al-|tri fo-|co.|
V:2
 c4 A2 B2 | c4 B4 | G4 A2 G2 | B2 F2 G2 c2 | d3 G B2 G2 | A2 G2 G4 |[M:2/4] A4 :: G4- | %8
[M:4/4] G2 G2 A4 | B4 G2 F2 | c4 d4 |[M:3/2] z4 B4 c4 | F8 G4 | A8 G4 | c4 d8 | A4 E8 | A8 c4 | %17
 c8 c4 | G4 B4 A4 | F8 A4 | B4 c8 | A12 :| %22
V:3
 A2 G2 F2 D2 | E2 F2 F4 | B,2 C4 B,2 | F2 D2 C2 A2 | F3 E F2 C2 | C2 D2 E4 |[M:2/4] C4 :: E4- | %8
[M:4/4] E2 D2 ^F4 | D4 C2 D2 | A4 F4 |[M:3/2] z4 F4 F4 | D4 C4 D4 | C8 E4 | F4 F8 | E4 C8 | F8 G4 | %17
 A4 G4 F4 | E4 D4 C4 | D8 C4 | D4 F4 E4 | F12 :| %22
V:4
 F,2 E,2 F,2 G,2 | C,2 A,,2 B,,3 A,, | G,,2 C,2 F,2 _E,2 | D,2 B,,2 _E,2 F,2 | B,,3 C, D,2 E,2 | %5
 F,2 B,,2 C,4 |[M:2/4] F,,4 :: C,4 |[M:4/4] C,2 G,,2 D,4 | G,,2 G,2 _E,2 B,,2 | F,,4 B,,4 | %11
[M:3/2] z4 B,4 A,4 | B,4 A,4 G,4 | F,4 F,,4 G,,4 | A,,4 B,,8 | C,4 C,,8 | F,,4 F,4 E,4 | %17
 F,4 E,4 D,4 | C,4 B,,4 A,,4 | B,,8 A,,4 | B,,4 C,8 | F,,12 :| %22

